src/Icon/svgs/PaperOutline.svg

<svg xmlns="http://www.w3.org/2000/svg" width="24" height="24" fill="none"  xmlns:v="https://vecta.io/nano"><path fill-rule="evenodd" d="M4.01 4c0-1.1.89-2 1.99-2h8l6 6v12c0 1.1-.9 2-2 2H5.99C4.89 22 4 21.1 4 20l.01-16zM6 4v16h12V10h-6V4H6z" fill="#1b1c1d"/></svg>

<svg width="24" height="24" viewBox="0 0 24 24" fill="none" xmlns="http://www.w3.org/2000/svg">
<path fill-rule="evenodd" clip-rule="evenodd" d="M4.01 4C4.01 2.9 4.9 2 6 2H14L20 8V20C20 21.1 19.1 22 18 22L5.99 22C4.89 22 4 21.1 4 20L4.01 4ZM6 4V20H18V10H12V4L6 4Z" fill="#1B1C1D"/>
</svg>
